X: 23604
T: Lilly, The
R: reel
M: 4/4
K: Dmajor
d2 d>A B2 A>G|1 F<DF>A d3:|2 F<DF>A D4||
|:(3FGA D>A F>A D2|(3GAB E>B G>B E2|
(3FGA D>A F>AD>A|1 F<GF>E D4:|2 F<DF>A d3||

